X: 1973
T: The Weird Jig
B: australian traditional tunes wiki
M:6/8
L:1/8
R: Jig
Q: 3/8=100
K:G
V:1 
D2|:"G"G>GG G2D|G>Bc "Em"d>ge|"G"d2c B>dc|"Bm"B>FF F2G|
"G"D>GG G2D|G>Bc "Em"d>ge|"D"dga "Bm"g>dc|"G"B>GG G2d:|
|:"D"f>ff f>dc|"G"B>dd g>gg|"C"g>dc "G"B>dc|"Bm"B>FF F2F|
"G"G>BF G>BF|G>Bc "Em"d>ge|d>gf "D"g>ed|"G"B>GG G2z:|
% abcbook-tune_id 6342d5bee0eaf1bc07d04685


% abcbook-boost 0
% abcbook-tablature 
% abcbook-transpose 
% abcbook-lastupdated 1665324491645
% abcbook-soundfonts 
% abcbook-repeats 1
% NFF Book 2006

